X: 42607
T: Whinham's
R: reel
M: 4/4
K: Gmajor
|:D2|GABA G2D2|E2G2 D4|E2G2 D2G2|B2A2 A2BA|
GABA G2D2|E2G2 D4|E2G2 F2dc|B2G2 G2:|
|:(3def|g2G2 B2g2|f2G2 c2e2|d2D2 G2B2|cBAB cdef|
g2G2 B2g2|f2G2 c2e2|d2D2 F2dc|B2G2 G2:|

